X: 1
T:Rambling Sailor, The
R:polka
D:Jackie Daly: Many's a Wild Night
Z:id:hn-polka-39
M:2/4
L:1/8
K:A
A>B ce|ae fe|A>B ce|fc ec|A>B ce|ae fe|fa/f/ ec|1 BA A2:|2 BA AB||
|:c>d cB|c/d/e fe|c>d cB|c/B/A B2|c>d cB|c/d/e fe|fa/f/ ec|1 BA AB:|2 BA A2||
